lg/tnw.svg

<svg viewBox="0 0 512 125" version="1.1" xmlns="http://www.w3.org/2000/svg" preserveAspectRatio="xMidYMid" height="1em" width="1em">
  <g>
    <path d="M124.121181,0 L192.014646,0 C203.947879,0 215.408533,4.58239776 224.044341,12.7729139 L224.927527,13.6330395 L250.103653,38.7878788 C258.541366,47.2260722 263.42497,58.5702251 263.741169,70.4676487 L263.757545,71.7002938 L263.757545,124.121212 L217.21209,124.121212 L217.21209,78.1268868 C217.21209,74.286171 215.769724,70.5922868 213.211454,67.7512617 L212.646291,67.1557818 L196.569553,51.0895011 C193.85391,48.3739152 190.226002,46.7690535 186.40866,46.5671413 L185.588022,46.5454545 L170.666636,46.5454545 L170.666636,124.121212 L124.121181,124.121212 L124.121181,0 Z M325.818151,0 L325.818151,77.5757576 L340.739072,77.5757576 C344.579788,77.5757576 348.273267,76.151962 351.114238,73.5961671 L351.709712,73.0312766 L367.797776,56.9649648 C370.513825,54.2493789 372.137261,50.6305033 372.341647,46.8147441 L372.363605,45.9943253 L372.363605,0 L418.90906,0 L418.90906,52.4204528 C418.90906,60.9654986 416.525035,69.2537398 412.174731,76.4488874 L411.471562,77.5757576 L433.830012,77.5757576 C437.670728,77.5757576 441.364207,76.151962 444.205178,73.5961671 L444.800652,73.0312766 L460.888716,56.9649648 C463.604765,54.2493789 465.228201,50.6305033 465.432587,46.8147441 L465.454545,45.9943253 L465.454545,0 L512,0 L512,52.4204528 C512,64.3536855 507.397682,75.8143107 499.206258,84.4497238 L498.346108,85.3328679 L473.180377,110.488173 C464.742634,118.926366 453.388289,123.790037 441.489793,124.104906 L440.257071,124.121212 L395.636333,124.121212 L395.636333,94.9479176 L380.089468,110.488173 C371.651725,118.926366 360.29738,123.790037 348.398884,124.104906 L347.166161,124.121212 L279.272665,124.121212 L279.272665,0 L325.818151,0 Z M108.60603,0 L108.60603,46.5454545 L77.5756955,46.5454545 L77.5756955,124.121212 L31.030303,124.121212 L31.030303,46.5454545 L0,46.5454545 L0,0 L108.60603,0 Z" fill="#FF4422" fill-rule="nonzero"/>
  </g>
</svg>

<svg viewBox="0 0 512 125" xmlns="http://www.w3.org/2000/svg" preserveAspectRatio="xMidYMid" height="1em" width="1em">
  <path d="M124.121 0h67.894a46.546 46.546 0 0 1 32.03 12.773l.883.86 25.176 25.155a46.575 46.575 0 0 1 13.637 31.68l.017 1.232v52.421h-46.546V78.127c0-3.84-1.442-7.535-4-10.376l-.566-.595L196.57 51.09a15.538 15.538 0 0 0-10.161-4.523l-.821-.022h-14.921v77.576H124.12V0Zm201.697 0v77.576h14.921c3.84 0 7.534-1.424 10.375-3.98l.596-.565 16.088-16.066a15.549 15.549 0 0 0 4.544-10.15l.022-.82V0h46.545v52.42c0 8.545-2.384 16.834-6.734 24.029l-.703 1.127h22.358c3.84 0 7.534-1.424 10.375-3.98l.596-.565 16.088-16.066a15.549 15.549 0 0 0 4.544-10.15l.022-.82V0H512v52.42a46.56 46.56 0 0 1-12.794 32.03l-.86.883-25.166 25.155a46.568 46.568 0 0 1-31.69 13.617l-1.233.016h-44.62V94.948l-15.548 15.54a46.568 46.568 0 0 1-31.69 13.617l-1.233.016h-67.893V0h46.545ZM108.606 0v46.545h-31.03v77.576H31.03V46.545H0V0h108.606Z" fill="#F42"/>
</svg>
